X: 1
T:Drowsy Maggie
T:% Nottingham Music Database
M:4/4
L:1/8
Q:220
C:Traditional
S:From Bog Carrot Sessions
R:Reel
N:Second in set with "City od Savannah
K:Em
|:"Em"E2BE dEBE|"Em"E2BE "D"AFDF|"Em"E2BE dEBE|"Em"BAB^c "D"dBAF |!
"Em"E2BE dEBE|"Em"E2BE "D"AFDF|"Em"E2BE dEBE|1"Em"BAB^c "D"dAGF:|2"Em"BA
B^c "D"dAFA||!
|:"D"d2fd "A7"^c2ec|"D"defg "A7"afge|"D"d2fd "A"^c2ec|"G"BAB^c "D"dAFA |
